X: 16533
T: Halling Efter Mats Berglund
R: polka
M: 2/4
K: Dminor
A,<C D>E|FF/D/ EE/C/|A,/G,/A,/C/ D>E|FF/D/ E/D/C|1 D2 D2:|2 D2 D>E ]|
|:FF/D/ F/A/F/D/|EE/D/ ED/E/|FF/D/ F/A/F/D/|EE/D/ ED/E/|FF/D/ E/D/C|1 D2 D>E:|2 D2 D2]|
|:^f>e d/e/f/^g/|a^g/e/ g^f|^f>e d/e/f/^g/|a^g/e/ ^f2|^f>e d/e/f/^g/|a^g/e/ g^f|
A,<C D>E|FF/D/ E/D/C|D2 D2:|

